X:93
T:Ffarwel i Aberystwyth - Farewell Aberystwyth
M:6/8
L:1/8
Q:70
C:Trad.
R:Slow air
K:G
E | G2 E A2 G | A B2- B2 E | E2 B B<AG
| F3- F2 B/2c/2 | B>AG FED | D E2- E2 E/2F/2
| G>AB AGF | E3- E2 ||
